www/assets/icons/rotate_90_degrees_cw_outline.svg

<svg xmlns="http://www.w3.org/2000/svg" width="24" height="24" viewBox="0 0 24 24" fill='currentColor'><path d="M1.5 13.5a9 9 0 0 0 13.79 7.62l-1.46-1.46c-.99.53-2.13.84-3.33.84-3.86 0-7-3.14-7-7s3.14-7 7-7h.17L9.09 8.09 10.5 9.5l4-4-4-4-1.42 1.41 1.59 1.59h-.17a9 9 0 0 0-9 9m9 0 6 6 6-6-6-6zm6 3.17-3.17-3.17 3.17-3.17 3.17 3.17z"/></svg>

<svg width="24" height="24" viewBox="0 0 24 24" xmlns="http://www.w3.org/2000/svg" fill='currentColor'><path d="M1.5 13.5C1.5 18.47 5.53 22.5 10.5 22.5C12.26 22.5 13.9 21.99 15.29 21.12L13.83 19.66C12.84 20.19 11.7 20.5 10.5 20.5C6.64 20.5 3.5 17.36 3.5 13.5C3.5 9.64 6.64 6.5 10.5 6.5H10.67L9.09 8.09L10.5 9.5L14.5 5.5L10.5 1.5L9.08 2.91L10.67 4.5H10.5C5.53 4.5 1.5 8.53 1.5 13.5ZM10.5 13.5L16.5 19.5L22.5 13.5L16.5 7.5L10.5 13.5ZM16.5 16.67L13.33 13.5L16.5 10.33L19.67 13.5L16.5 16.67Z"/></svg>
